svg/u1f52c.svg

<svg viewBox="0 0 128 128" xmlns="http://www.w3.org/2000/svg">
  <g>
    <rect height="6.25" fill="#4B727B" transform="matrix(0.866 0.5 -0.5 0.866 52.1256 -9.1603)" width="49.08" x="18.61" y="89.56"/>
    <path d="M67.03,53.81c0,0,25.06,11.17,7.18,37.01c0,0-6.74-1.53-13.91,3.43c-9,6.23-10.03,19.7-26.7,19.7 s70.59,0,70.59,0l-8.57-8.1c0,0,7.15-18.08,2.94-37.24c-4.9-22.3-23.78-27.7-23.78-27.7L67.03,53.81z" fill="#4B727B"/>
    <path d="M71.07,53.81c0,0,25.06,11.17,7.18,37.01c0,0-6.74-1.53-13.91,3.43c-9,6.23-10.03,19.7-26.7,19.7 s70.59,0,70.59,0l-8.57-8.1c0,0,7.15-18.08,2.94-37.24c-4.9-22.3-23.78-27.7-23.78-27.7L71.07,53.81z" fill="#82AEC0"/>
    <rect height="2.97" fill="#81D4FA" transform="matrix(0.866 0.5 -0.5 0.866 47.7365 -8.1548)" width="34.35" x="21.91" y="83.51"/>
    <path d="M17.34,98.24l1.82-3.94c0,0,19.43,7.61,23.05,8.95l-1.65,3.61c-0.55,1.48-6.19,0.74-12.6-1.64 C21.55,102.84,16.8,99.71,17.34,98.24z" fill="#4B727B"/>
    <g>
      <path d="M40.03,103.27c-2.32,0-6.19-0.9-10.11-2.36c-7.43-2.76-10.36-5.53-10.22-6.11 c0.03-0.07,0.41-0.32,1.62-0.32c2.32,0,6.19,0.9,10.11,2.36c7.43,2.76,10.36,5.53,10.22,6.11 C41.62,103.02,41.24,103.27,40.03,103.27z" fill="#B3E5FC"/>
      <path d="M21.33,95.16L21.33,95.16c2.24,0,6.03,0.89,9.87,2.32c5.27,1.96,8.4,4.03,9.43,5.09 c-0.16,0.02-0.35,0.03-0.59,0.03c-2.24,0-6.03-0.89-9.87-2.32c-5.27-1.96-8.4-4.03-9.43-5.09C20.89,95.17,21.09,95.16,21.33,95.16 M21.33,93.8c-1.25,0-2.06,0.25-2.26,0.76c-0.55,1.48,4.2,4.6,10.62,6.99c4.17,1.55,8.02,2.4,10.35,2.4 c1.25,0,2.06-0.25,2.26-0.76c0.55-1.48-4.2-4.6-10.62-6.99C27.5,94.66,23.65,93.8,21.33,93.8L21.33,93.8z" fill="#90A4AE"/>
    </g>
    <path d="M25.23,100.71c0,0-4.29,7.48,0.86,13.85c3.9,4.82,20.59,0.61,20.59,0.61s-15.2-0.98-15.56-11.27 L25.23,100.71z" fill="#4B727B"/>
    <path d="M116.53,124H11.47c-1.26,0-2.29-1.03-2.29-2.29v0c0-5.1,4.13-9.23,9.23-9.23h91.18 c5.1,0,9.23,4.13,9.23,9.23v0C118.82,122.97,117.8,124,116.53,124z" fill="#82AEC0"/>
    <g>
      <path d="M43.33,64.23l7.76,4.47l-7.77,10.43c0,0-1.42,0.41-3.45-0.69s-2.25-2.57-2.25-2.57L43.33,64.23z" fill="#545454"/>
      <path d="M80.6,29.44L80.6,29.44l8.09-14.03c0,0-1.73-4.02-6.33-6.78c-4.6-2.76-8.3-1.64-8.3-1.64 l-8.08,14.03l0,0c-0.01,0.01-0.03,0.02-0.03,0.04c-0.53,0.92,2.32,3.55,6.36,5.88c4.04,2.33,7.75,3.47,8.28,2.55 C80.59,29.48,80.59,29.46,80.6,29.44z" fill="#82AEC0"/>
      <path d="M83.92,6.98c-8.46-5.04-11.3-2.43-11.84-1.16c-0.26,0.62-0.07,2.26,1.01,2.9l0.58-1.08 c0.53-0.92,4.6-0.47,8.67,1.87c4.06,2.34,6.46,5.65,5.93,6.57c-0.05,0.09-0.49,0.84-0.49,0.84c0.6,0.48,2.46,0.2,2.91-0.39 C91.52,15.42,92.79,12.26,83.92,6.98z" fill="#616161"/>
      <path d="M40.23,53.9c2.79-4.84,10.61-5.56,17.47-1.6s10.16,11.08,7.38,15.92 c-2.79,4.84-11.05,6.33-17.92,2.37C40.3,66.64,37.44,58.74,40.23,53.9z" fill="#BDBDBD"/>
      <path d="M51.09,69.71c0,0,0.74-1.1,3.98-1.41c3.25-0.31,4.96,1.78,4.96,1.78l-1.88,11.46 c0,0-1.09,1.01-3.39,0.94s-3.17-1.28-3.17-1.28L51.09,69.71z" fill="#757575"/>
      <path d="M40,56.72c0,0,1.86-0.1,3.39,2.78c1.75,3.29-0.02,5.5-0.02,5.5l-10.31,3.67 c0,0-1.42-0.43-2.52-2.45c-1.1-2.03-0.49-3.38-0.49-3.38L40,56.72z" fill="#757575"/>
      <path d="M74.22,23.62c-6.49-3.66-10.59-4.52-12.53-4.69c-0.77-0.06-1.5,0.32-1.88,0.99L40.25,53.88 c0,0,4.84,0.59,13.28,5.46c8.44,4.86,11.56,8.85,11.56,8.85L84.67,34.2c0.38-0.66,0.35-1.46-0.07-2.1 C83.52,30.48,80.75,27.3,74.22,23.62z" fill="#E0E0E0"/>
    </g>
    <circle cx="73.43" cy="107.3" r="6.53" fill="#424242"/>
    <circle cx="74.82" cy="108" r="4.14" fill="#BDBDBD"/>
    <path d="M48.07,54.76c0,0,17.32-30,18.58-31.44c1.25-1.44,5.98,0.47,5.24,1.86 c-0.74,1.39-17.96,32.09-17.96,32.09C50.5,55.03,48.07,54.76,48.07,54.76z" fill="#F5F5F5"/>
    <path d="M84.11,93.15c1.42-2.18,4.89-8.66,4.09-19.01c-1.24-16.16-14.27-21.32-14.27-21.32l-1.16,2.01 c10.6,6.97,17.17,19.08,5.48,35.98c0,0-6.74-1.53-13.91,3.43c-7.08,4.9-9.23,14.27-17.93,18.05h6.25c0,0,4.04,0.14,8.36-6.97 c4.32-7.11,6.69-10.59,13.93-11.84s13.51,4.6,13.51,4.6S87.49,95.38,84.11,93.15z" fill="#94D1E0"/>
    <circle cx="77.35" cy="47.36" r="7.23" fill="#424242"/>
    <circle cx="78.87" cy="47.23" r="4.91" fill="#BDBDBD"/>
    <path d="M75.42,42.51c-3.72,2.44-1.93,6.88-1.93,6.88l-1.82,0.42c-0.92-1.46-0.98-3.43-0.42-5.04 c0.48-1.34,1.27-2.44,3.21-3.3L75.42,42.51z" fill="#757575"/>
    <path d="M76.59,8.73l-5.91,11.11l3.07,1.21l6.22-11.42C77.68,8.31,76.59,8.73,76.59,8.73z" fill="#94D1E0"/>
    <ellipse cx="55.11" cy="81.09" rx="2.17" ry="0.69" fill="#81D4FA"/>
  </g>
</svg>

<svg viewBox="0 0 128 128" xmlns="http://www.w3.org/2000/svg">
  <defs/>
  <path d="M23.462,77.704 L65.965,102.244 L62.84,107.656 L20.337,83.116 L23.462,77.704 Z" fill="#4B727B"/>
  <path d="M67.03,53.81 C67.03,53.81 92.09,64.98 74.21,90.82 C74.21,90.82 67.47,89.29 60.3,94.25 C51.3,100.48 50.27,113.95 33.6,113.95 C16.93,113.95 104.19,113.95 104.19,113.95 L95.62,105.85 C95.62,105.85 102.77,87.77 98.56,68.61 C93.66,46.31 74.78,40.91 74.78,40.91 L67.03,53.81 Z" fill="#4B727B"/>
  <path d="M71.07,53.81 C71.07,53.81 96.13,64.98 78.25,90.82 C78.25,90.82 71.51,89.29 64.34,94.25 C55.34,100.48 54.31,113.95 37.64,113.95 C20.97,113.95 108.23,113.95 108.23,113.95 L99.66,105.85 C99.66,105.85 106.81,87.77 102.6,68.61 C97.7,46.31 78.82,40.91 78.82,40.91 L71.07,53.81 Z" fill="#82AEC0"/>
  <path d="M24.956,75.12 L54.703,92.295 L53.218,94.867 L23.471,77.692 L24.956,75.12 Z" fill="#81D4FA"/>
  <path d="M17.34,98.24 L19.16,94.3 C19.16,94.3 38.59,101.91 42.21,103.25 L40.56,106.86 C40.01,108.34 34.37,107.6 27.96,105.22 C21.55,102.84 16.8,99.71 17.34,98.24 Z" fill="#4B727B"/>
  <path d="M40.03,103.27 C37.71,103.27 33.84,102.37 29.92,100.91 C22.49,98.15 19.56,95.38 19.7,94.8 C19.73,94.73 20.11,94.48 21.32,94.48 C23.64,94.48 27.51,95.38 31.43,96.84 C38.86,99.6 41.79,102.37 41.65,102.95 C41.62,103.02 41.24,103.27 40.03,103.27 Z" fill="#B3E5FC"/>
  <path d="M21.33,95.16 L21.33,95.16 C23.57,95.16 27.36,96.05 31.2,97.48 C36.47,99.44 39.6,101.51 40.63,102.57 C40.47,102.59 40.28,102.6 40.04,102.6 C37.8,102.6 34.01,101.71 30.17,100.28 C24.9,98.32 21.77,96.25 20.74,95.19 C20.89,95.17 21.09,95.16 21.33,95.16 M21.33,93.8 C20.08,93.8 19.27,94.05 19.07,94.56 C18.52,96.04 23.27,99.16 29.69,101.55 C33.86,103.1 37.71,103.95 40.04,103.95 C41.29,103.95 42.1,103.7 42.3,103.19 C42.85,101.71 38.1,98.59 31.68,96.2 C27.5,94.66 23.65,93.8 21.33,93.8 L21.33,93.8 Z" fill="#90A4AE"/>
  <path d="M25.23,100.71 C25.23,100.71 20.94,108.19 26.09,114.56 C29.99,119.38 46.68,115.17 46.68,115.17 C46.68,115.17 31.48,114.19 31.12,103.9 L25.23,100.71 Z" fill="#4B727B"/>
  <path d="M116.53,124 L11.47,124 C10.21,124 9.18,122.97 9.18,121.71 L9.18,121.71 C9.18,116.61 13.31,112.48 18.41,112.48 L109.59,112.48 C114.69,112.48 118.82,116.61 118.82,121.71 L118.82,121.71 C118.82,122.97 117.8,124 116.53,124 Z" fill="#82AEC0"/>
  <path d="M43.33,64.23 L51.09,68.7 L43.32,79.13 C43.32,79.13 41.9,79.54 39.87,78.44 C37.84,77.34 37.62,75.87 37.62,75.87 L43.33,64.23 Z" fill="#545454"/>
  <path d="M80.6,29.44 L80.6,29.44 L88.69,15.41 C88.69,15.41 86.96,11.39 82.36,8.63 C77.76,5.87 74.06,6.99 74.06,6.99 L65.98,21.02 L65.98,21.02 C65.97,21.03 65.95,21.04 65.95,21.06 C65.42,21.98 68.27,24.61 72.31,26.94 C76.35,29.27 80.06,30.41 80.59,29.49 C80.59,29.48 80.59,29.46 80.6,29.44 Z" fill="#82AEC0"/>
  <path d="M83.92,6.98 C75.46,1.94 72.62,4.55 72.08,5.82 C71.82,6.44 72.01,8.08 73.09,8.72 L73.67,7.64 C74.2,6.72 78.27,7.17 82.34,9.51 C86.4,11.85 88.8,15.16 88.27,16.08 C88.22,16.17 87.78,16.92 87.78,16.92 C88.38,17.4 90.24,17.12 90.69,16.53 C91.52,15.42 92.79,12.26 83.92,6.98 Z" fill="#616161"/>
  <path d="M40.23,53.9 C43.02,49.06 50.84,48.34 57.7,52.3 C64.56,56.26 67.86,63.38 65.08,68.22 C62.29,73.06 54.03,74.55 47.16,70.59 C40.3,66.64 37.44,58.74 40.23,53.9 Z" fill="#BDBDBD"/>
  <path d="M51.09,69.71 C51.09,69.71 51.83,68.61 55.07,68.3 C58.32,67.99 60.03,70.08 60.03,70.08 L58.15,81.54 C58.15,81.54 57.06,82.55 54.76,82.48 C52.46,82.41 51.59,81.2 51.59,81.2 L51.09,69.71 Z" fill="#757575"/>
  <path d="M40,56.72 C40,56.72 41.86,56.62 43.39,59.5 C45.14,62.79 43.37,65 43.37,65 L33.06,68.67 C33.06,68.67 31.64,68.24 30.54,66.22 C29.44,64.19 30.05,62.84 30.05,62.84 L40,56.72 Z" fill="#757575"/>
  <path d="M74.22,23.62 C67.73,19.96 63.63,19.1 61.69,18.93 C60.92,18.87 60.19,19.25 59.81,19.92 L40.25,53.88 C40.25,53.88 45.09,54.47 53.53,59.34 C61.97,64.2 65.09,68.19 65.09,68.19 L84.67,34.2 C85.05,33.54 85.02,32.74 84.6,32.1 C83.52,30.48 80.75,27.3 74.22,23.62 Z" fill="#E0E0E0"/>
  <path d="M79.96,107.3 A6.53 6.53 0 1 1 66.9,107.3 A6.53 6.53 0 1 1 79.96,107.3 Z" fill="#424242"/>
  <path d="M78.96,108 A4.14 4.14 0 1 1 70.68,108 A4.14 4.14 0 1 1 78.96,108 Z" fill="#BDBDBD"/>
  <path d="M48.07,54.76 C48.07,54.76 65.39,24.76 66.65,23.32 C67.9,21.88 72.63,23.79 71.89,25.18 C71.15,26.57 53.93,57.27 53.93,57.27 C50.5,55.03 48.07,54.76 48.07,54.76 Z" fill="#F5F5F5"/>
  <path d="M84.11,93.15 C85.53,90.97 89,84.49 88.2,74.14 C86.96,57.98 73.93,52.82 73.93,52.82 L72.77,54.83 C83.37,61.8 89.94,73.91 78.25,90.81 C78.25,90.81 71.51,89.28 64.34,94.24 C57.26,99.14 55.11,108.51 46.41,112.29 L52.66,112.29 C52.66,112.29 56.7,112.43 61.02,105.32 C65.34,98.21 67.71,94.73 74.95,93.48 C82.19,92.23 88.46,98.08 88.46,98.08 C88.46,98.08 87.49,95.38 84.11,93.15 Z" fill="#94D1E0"/>
  <path d="M84.58,47.36 A7.23 7.23 0 1 1 70.12,47.36 A7.23 7.23 0 1 1 84.58,47.36 Z" fill="#424242"/>
  <path d="M83.78,47.23 A4.91 4.91 0 1 1 73.96,47.23 A4.91 4.91 0 1 1 83.78,47.23 Z" fill="#BDBDBD"/>
  <path d="M75.42,42.51 C71.7,44.95 73.49,49.39 73.49,49.39 L71.67,49.81 C70.75,48.35 70.69,46.38 71.25,44.77 C71.73,43.43 72.52,42.33 74.46,41.47 L75.42,42.51 Z" fill="#757575"/>
  <path d="M76.59,8.73 L70.68,19.84 L73.75,21.05 L79.97,9.63 C77.68,8.31 76.59,8.73 76.59,8.73 Z" fill="#94D1E0"/>
  <path d="M57.28,81.09 A2.17 0.69 0 1 1 52.94,81.09 A2.17 0.69 0 1 1 57.28,81.09 Z" fill="#81D4FA"/>
</svg>
